images/favicon.svg

<svg viewBox="0 0 84.39 83.8" xmlns="http://www.w3.org/2000/svg"><path d="m42.9 0a10.62 10.62 0 0 1 10.42 10.62v62.56a10.62 10.62 0 0 1 -10.42 10.61 41.9 41.9 0 0 0 41.49-41.89 41.9 41.9 0 0 0 -41.49-41.9z" fill="#212e60"/><path d="m31.07 73.18v-62.56a10.62 10.62 0 0 1 10.42-10.62 41.9 41.9 0 0 0 -41.49 41.9 41.9 41.9 0 0 0 41.49 41.89 10.62 10.62 0 0 1 -10.42-10.61z" fill="#f16522"/></svg>

<svg xmlns="http://www.w3.org/2000/svg" viewBox="0 0 84.39 83.8"><defs><style>.cls-1{isolation:isolate;}.cls-2,.cls-3{fill:#212e60;}.cls-2{mix-blend-mode:screen;}.cls-4{fill:#f16522;}</style></defs><g class="cls-1"><g id="Layer_2" data-name="Layer 2"><g id="Layer_1-2" data-name="Layer 1"><path class="cls-2" d="M41.7,83.8h0Z"/><path class="cls-3" d="M42.9,0A10.62,10.62,0,0,1,53.32,10.62V73.18A10.62,10.62,0,0,1,42.9,83.79,41.9,41.9,0,0,0,84.39,41.9h0A41.9,41.9,0,0,0,42.9,0Z"/><path class="cls-2" d="M41.7,0h0Z"/><path class="cls-4" d="M31.07,73.18V10.62A10.62,10.62,0,0,1,41.49,0,41.9,41.9,0,0,0,0,41.9H0A41.9,41.9,0,0,0,41.49,83.79,10.62,10.62,0,0,1,31.07,73.18Z"/></g></g></g></svg>
